X:2949
L:1/16
Q:1/4=120
M:4/4
K:Bb
"^Slow" (dc) | B2F2 (GF)(ED) B2F2B2d2 | B2(FB) (GF)(ED){D} C2C2(d2c2) | 
 B2F2 (GF)(ED) (F2>G2) B2>g2 | (f2<d2)(c2>d2) B4 :: (ga | b2>)f2g2b2 (f2>d2)(B2>d2) | 
 (Tc2>B2)(d2>B2){F} G6 (ga | b2>)f2g2>b2 (f2>d2)(B2>d2) | (Tc2>B2)(c2>d2) B6 (ga | 
 b2>)f2g2>b2 (f2>.d2)(B2>d2) | (c2B2){e}d2{c}B2{F} G6 B2 | (F2>G2)(B2>c2) B2>c2B2(bg) | 
 (f2<d2)(c2>d2) B6 |: (dc) | B2(F2 TF2)ED (BGFE) D(dcd) | (BF)(dB) (GF)(ED) TD2>(C2C2)dc | 
 (Bd)(FB) (GF)(ED) (FGAB) (cdfg) | (fbab) (fdcd) B6 :: (ga) | (b2>f2) (gbab) (gf)(ag) (bfed) | 
 (TcBcd) (edcB){F} G6 (ga) | (bagf) (gfed) (edcB) (cdef) | (BGFE) (DBcA) B6 (ga) | 
 (bfgb) (fbab) (gfbf) (gfed) | (cBfd) (edcB){F} G2>F2G2B2 | (FEDE) (FBdB) (eB)(fB) (gB)(aB) | 
 (bf)(ge) (fd)(cd) B6 ||

